outputs/icons/editor/justify_sharp.svg

<svg xmlns="http://www.w3.org/2000/svg" width="1200" height="1200" fill="none"><g clip-path="url(#a)"><path fill="#000" d="M150 1050h900V950H150zm0-200h900V750H150zm0-200h900V550H150zm0-200h900V350H150zm0-300v100h900V150z"/></g><defs><clipPath id="a"><path fill="#fff" d="M0 0h1200v1200H0z"/></clipPath></defs></svg>

<svg width="1200" height="1200" viewBox="0 0 1200 1200" fill="none" xmlns="http://www.w3.org/2000/svg"><g clip-path="url(#clip0_238_3251)"><path d="M150 1050H1050V950H150V1050ZM150 850H1050V750H150V850ZM150 650H1050V550H150V650ZM150 450H1050V350H150V450ZM150 150V250H1050V150H150Z" fill="black"/></g><defs><clipPath id="clip0_238_3251"><path width="24" fill="white" d="M0 0H1200V1200H0V0z"/></clipPath></defs></svg>
